X: 489
T: Shalom Aleychem
C: words: prayer book
C: tune: trad Ashkenazi
D: Andy Statman & David Grisman "Songs of our Fathers"
B: Harvard Hillel Sabbath Songbook
Z: John Chambers <jc:trillian.mit.edu>
M: C
L: 1/8
K: Gm
[|"Gm"D2 BA G2 G2 | "D7"^FG AG (FE) D2 | ^FF F2 "Gm"(GF GB) | "D7"A4 z4 |
w: 1.~Sha-lom a-ley-chem, mal-'a chey ha-sha-*lom, mal'-a-chey el___ yon.
w: 2.~Tseyt-hem l'-sha-lom. mal-'a chey ha-sha-*lom, mal'-a-chey el___ yon.
| "Gm"(D2 BA) G2 G2 | "D"^FG AG (FE) D2 | "Cm"CC G2 ^F2 (E{D}C) | "D"D4 z4 |
w: Mi-**me-lech mal-*chey ham'-la-*chim, ha-ka-dosh ba-ruch_ hu.
w: Mi-**me-lech mal-*chey ham'-la-*chim, ha-ka-dosh ba-ruch_ hu.
| "B"Bc dd d2 d2 | "F7"cB AB "D7"(cd) c2 | "Gm"BA (GA) (B2 d2) | "D7"A4 z4 |
w: Bo'-a-chem l'-sha-lom mal'-a-chey ha-sha-*lom mal'-a-chey* el-*yon
w: Bar-chu-hi l'-sha-lom mal'-a-chey ha-sha-*lom mal'-a-chey* el-*yon
| "Cm"(A2 c2) c2 c2 | "D7"(ce) dc "Gm"(BA) G2 | GA B2 "D7"(AG) (^FA) | "Gm"G4 z4 |]
w: Mi-*me-lech mal-*chey ham'-la-*chim, ha-ka-dosh ba-*ruch* hu.
w: Mi-*me-lech mal-*chey ham'-la-*chim, ha-ka-dosh ba-*ruch* hu.
